images/art-pointer.svg

<?xml version="1.0" encoding="UTF-8"?>
<svg width="380px" height="235px" viewBox="0 0 380 235" version="1.1" xmlns="http://www.w3.org/2000/svg" xmlns:xlink="http://www.w3.org/1999/xlink">
    <!-- Generator: Sketch 51.3 (57544) - http://www.bohemiancoding.com/sketch -->
    <title>art-pointer</title>
    <desc>Created with Sketch.</desc>
    <defs></defs>
    <g id="Landing" stroke="none" stroke-width="1" fill="none" fill-rule="evenodd">
        <g id="landing-page-mvp" transform="translate(-808.000000, -4379.000000)">
            <g id="feature-cards-illustrated" transform="translate(0.000000, 3893.000000)">
                <g id="cards" transform="translate(157.000000, 192.000000)">
                    <g id="pointer" transform="translate(596.000000, 0.000000)">
                        <g id="Group-5" transform="translate(55.000000, 277.000000)">
                            <rect id="Rectangle-15" fill="#F3F5FA" x="0" y="47" width="380" height="205" rx="20"></rect>
                            <g id="illustration-pointer" transform="translate(84.000000, 0.000000)">
                                <g id="point" transform="translate(64.000000, 118.000000)">
                                    <g id="finger" transform="translate(22.000000, 0.000000)">
                                        <rect id="Rectangle-6" fill="#FFFFFF" x="0" y="0" width="40" height="160" rx="20"></rect>
                                        <path d="M20,9 L20,9 C26.627417,9 32,14.372583 32,21 L32,32 L8,32 L8,21 C8,14.372583 13.372583,9 20,9 Z" id="Rectangle-6" stroke="#1F0166" stroke-width="2" stroke-linecap="round"></path>
                                    </g>
                                </g>
                                <g id="burst" transform="translate(115.507322, 121.326099) rotate(9.000000) translate(-115.507322, -121.326099) translate(15.507322, 14.326099)" fill="#92A7D7" stroke="#92A7D7" stroke-width="6">
                                    <path d="M1.20816018,35.1732259 C13.8403147,48.3316341 26.4724692,61.4901827 39.1046236,74.6485909 C42.6676188,78.3598468 46.2304725,82.0712431 49.7934676,85.782499 C51.3274741,87.380397 54.2675353,87.4310726 55.7917864,85.782499 C57.3768321,84.0682295 57.428437,81.5316384 55.7917864,79.8270549 C43.1596319,66.6685063 30.5274774,53.5100981 17.8953229,40.3516899 C14.3323278,36.6402936 10.7694741,32.9288973 7.20662032,29.217501 C5.67247247,27.619603 2.73241122,27.5689274 1.20816018,29.217501 C-0.376885587,30.9319109 -0.42834903,33.4683616 1.20816018,35.1732259" id="Fill-1"></path>
                                    <path d="M135.094863,2.05064423 C130.507053,11.42428 126.270746,20.9670843 122.370965,30.6425337 C118.575037,40.0597711 115.122767,49.6133342 112.023856,59.2788742 C110.284168,64.7051497 108.65775,70.1666745 107.140748,75.6583524 C106.549297,77.7989361 107.874427,80.372846 110.129815,80.8824751 C112.389625,81.3932367 114.760849,80.2090569 115.394241,77.9162923 C119.234392,64.0151686 123.78982,50.3106767 129.046543,36.8735985 C130.53915,33.0583171 132.089391,29.2654027 133.692699,25.4945723 C133.548759,25.8327678 133.404962,26.1709633 133.261165,26.5090173 C136.158647,19.7068849 139.234306,12.9806305 142.485716,6.33761564 C143.462195,4.34241784 143.100278,1.65440763 140.950312,0.527136444 C139.030165,-0.479664093 136.139103,-0.082719674 135.094863,2.05064423" id="Fill-3"></path>
                                    <path d="M49.1075183,150.12197 C43.7159689,157.162367 38.5599103,164.383805 33.6561631,171.776052 C28.75284,179.16773 24.0999908,186.727801 19.7090648,194.438218 C17.2307586,198.789725 14.837687,203.189831 12.526599,207.633563 C11.499543,209.608239 11.9583682,212.356245 14.0479593,213.466361 C16.0005813,214.503578 18.7524016,214.046998 19.8498504,211.936897 C23.9446461,204.06306 28.3019305,196.327916 32.9190179,188.751645 C37.5361054,181.175658 42.4098862,173.757975 47.5296176,166.51579 C50.4191137,162.428597 53.3879077,158.398529 56.4306283,154.425304 C57.0531379,153.612469 57.1142015,152.075189 56.8580736,151.140429 C56.5872452,150.151528 55.8266357,149.079922 54.909268,148.592648 C53.9251827,148.069989 52.7328874,147.80795 51.6417995,148.162925 C50.5183421,148.528275 49.8207752,149.190621 49.1075183,150.12197" id="Fill-6"></path>
                                    <path d="M139.127518,150.928124 C153.247458,161.434335 167.367683,171.940545 181.487766,182.446756 C185.511146,185.440376 189.534668,188.434138 193.558191,191.427901 C194.38948,192.046389 195.899333,192.11866 196.851576,191.857265 C197.842996,191.58522 198.917332,190.821197 199.405705,189.899854 C199.929837,188.911209 200.192544,187.713562 199.836664,186.617435 C199.472664,185.496744 198.813474,184.772051 197.872486,184.071921 C183.752261,173.56571 169.632321,163.059358 155.512239,152.553147 C151.488716,149.559385 147.465194,146.565765 143.441814,143.572002 C142.610525,142.953656 141.100671,142.881385 140.148429,143.142638 C139.157008,143.414682 138.082673,144.178706 137.594157,145.100191 C137.070168,146.088694 136.80746,147.28634 137.16334,148.382326 C137.527341,149.503159 138.186531,150.227852 139.127518,150.928124" id="Fill-9"></path>
                                </g>
                            </g>
                        </g>
                    </g>
                </g>
            </g>
        </g>
    </g>
</svg>

<svg width="380" height="235" xmlns="http://www.w3.org/2000/svg">
  <g transform="translate(0 -17)" fill="none" fill-rule="evenodd">
    <rect fill="#F3F5FA" y="47" width="380" height="205" rx="20"/>
    <g transform="translate(84)">
      <g transform="translate(86 118)">
        <rect fill="#FFF" width="40" height="160" rx="20"/>
        <path d="M20 9c6.627 0 12 5.373 12 12v11H8V21c0-6.627 5.373-12 12-12z" stroke="#1F0166" stroke-width="2" stroke-linecap="round"/>
      </g>
      <g transform="rotate(9 16.738 212.683)" fill="#92A7D7" stroke="#92A7D7" stroke-width="6">
        <path d="M1.208 35.173L39.105 74.65l10.688 11.133c1.534 1.598 4.475 1.65 5.999 0 1.585-1.714 1.636-4.25 0-5.955L17.895 40.352 7.207 29.218c-1.535-1.598-4.475-1.65-5.999 0-1.585 1.714-1.636 4.25 0 5.955M135.095 2.05a434.67 434.67 0 0 0-12.724 28.593 417.8 417.8 0 0 0-15.23 45.015c-.592 2.14.733 4.715 2.989 5.224 2.26.511 4.63-.673 5.264-2.966a418.647 418.647 0 0 1 18.299-52.421l-.432 1.014a422.687 422.687 0 0 1 9.225-20.171c.976-1.996.614-4.684-1.536-5.81-1.92-1.008-4.81-.61-5.855 1.523M49.108 150.122a391.258 391.258 0 0 0-36.58 57.512c-1.028 1.974-.57 4.722 1.52 5.832 1.953 1.038 4.704.581 5.802-1.53a391.19 391.19 0 0 1 36.58-57.512c.623-.812.684-2.349.428-3.284-.27-.988-1.031-2.06-1.949-2.547-.984-.523-2.176-.785-3.267-.43-1.124.365-1.821 1.028-2.534 1.959M139.128 150.928l42.36 31.519 12.07 8.98c.831.62 2.341.692 3.294.43.991-.272 2.065-1.036 2.554-1.957.524-.989.787-2.186.43-3.283-.363-1.12-1.023-1.845-1.964-2.545l-42.36-31.519-12.07-8.981c-.831-.618-2.341-.69-3.294-.43-.991.273-2.065 1.037-2.554 1.958-.524.989-.787 2.186-.43 3.282.363 1.121 1.023 1.846 1.964 2.546"/>
      </g>
    </g>
  </g>
</svg>
